icons/mobile/20/svg/private-mode-circle-fill-stroke-20.svg

<svg width="20" height="20" viewBox="0 0 20 20" fill="none" xmlns="http://www.w3.org/2000/svg">
<path d="M10 1.5C14.6871 1.5 18.5 5.31286 18.5 10C18.5 14.6871 14.6871 18.5 10 18.5C5.31286 18.5 1.5 14.6871 1.5 10C1.5 5.31286 5.31286 1.5 10 1.5Z" fill="black" stroke="white"/>
<path d="M15.7877 10.6189C15.2189 10.6189 14.929 10.2067 14.8205 9.64666C14.6633 8.83519 14.3902 8.06809 14.0665 7.30284C13.9 6.90913 13.5951 6.00524 13.0918 5.90173C12.5194 5.78343 12.0142 6.09212 11.3613 7.40081C10.8244 8.4803 10.4615 9.23261 10.4615 9.23261V9.24L10.0929 9.2363C10.0929 9.2363 10.0892 9.2363 10.0836 9.2363C10.0836 9.2363 10.0611 9.2363 10.0331 9.2363C10.0256 9.2363 10.02 9.2363 10.0125 9.2363C10.0069 9.2363 10.0013 9.2363 9.99564 9.2363C9.99003 9.2363 9.98442 9.2363 9.9788 9.2363C9.97132 9.2363 9.96384 9.2363 9.95822 9.2363C9.93016 9.2363 9.90771 9.2363 9.90771 9.2363L9.89836 9.23815L9.52981 9.24185V9.23445C9.52981 9.23445 9.16687 8.48029 8.62995 7.40266C7.97891 6.09212 7.47192 5.78528 6.89945 5.90358C6.39621 6.00709 6.09127 6.91282 5.92476 7.30469C5.60111 8.06994 5.32798 8.83519 5.17083 9.6485C5.06232 10.2086 4.77422 10.6189 4.20362 10.6208C4.0577 10.6208 3.96042 10.7724 4.01093 10.9073C4.13253 11.2326 4.50669 11.4396 4.81912 11.5598C4.67881 11.5968 4.25974 11.5117 4.24104 11.7224C4.22607 11.8943 4.66384 12.0681 4.7817 12.1236C5.88361 12.6541 6.89758 13.606 8.20154 13.4378C8.76839 13.3639 9.18184 12.9646 9.6458 12.7169C9.86468 12.6004 10.1303 12.6004 10.3492 12.7169C10.8132 12.9646 11.2266 13.3639 11.7935 13.4378C13.0974 13.606 14.1114 12.6541 15.2133 12.1236C15.3312 12.0663 15.7671 11.8943 15.754 11.7224C15.7372 11.5136 15.3181 11.5968 15.1759 11.5598C15.4883 11.4396 15.8625 11.2326 15.9841 10.9073C16.0346 10.7724 15.9355 10.6226 15.7914 10.6208L15.7877 10.6189ZM6.55148 10.898C6.53465 10.7224 6.91629 10.5875 7.05473 10.5653C7.87789 10.4285 8.96857 10.7502 9.23422 11.6023C8.47842 12.2918 6.9219 11.8167 6.55148 10.8999V10.898ZM10.7552 11.6023C11.0208 10.7502 12.1115 10.4285 12.9347 10.5653C13.0731 10.5875 13.4548 10.7224 13.4379 10.898C13.0656 11.8149 11.511 12.2918 10.7552 11.6004V11.6023Z" fill="white"/>
</svg>

<!-- This Source Code Form is subject to the terms of the Mozilla Public
   - License, v. 2.0. If a copy of the MPL was not distributed with this
   - file, You can obtain one at http://mozilla.org/MPL/2.0/. -->
<svg xmlns="http://www.w3.org/2000/svg" width="20" height="20" fill="none" viewBox="0 0 20 20">
    <path fill="#000" d="M10 1.5c4.687 0 8.5 3.813 8.5 8.5s-3.813 8.5-8.5 8.5-8.5-3.813-8.5-8.5S5.313 1.5 10 1.5" />
    <path fill="#fff" d="M15.788 10.619c-.57 0-.859-.412-.968-.972-.157-.812-.43-1.579-.754-2.344-.166-.394-.47-1.298-.974-1.401-.573-.119-1.078.19-1.73 1.499-.538 1.08-.9 1.832-.9 1.832v.007l-.37-.004h-.184l-.01.002-.368.004v-.008s-.363-.754-.9-1.831c-.651-1.31-1.158-1.618-1.73-1.5-.504.104-.809 1.01-.975 1.402-.324.765-.597 1.53-.754 2.344-.109.56-.397.97-.967.972a.21.21 0 0 0-.193.286c.122.326.496.533.808.653-.14.037-.56-.048-.578.162-.015.172.423.346.54.402 1.103.53 2.117 1.482 3.42 1.314.567-.074.98-.473 1.445-.721a.75.75 0 0 1 .703 0c.464.248.878.647 1.444.72 1.304.169 2.318-.783 3.42-1.313.118-.058.554-.23.541-.402-.017-.208-.436-.125-.578-.162.312-.12.687-.327.808-.653a.213.213 0 0 0-.193-.286zm-9.237.279c-.016-.176.365-.31.504-.333.823-.136 1.914.185 2.18 1.037-.757.69-2.313.215-2.684-.702zm4.204.704c.266-.852 1.356-1.174 2.18-1.037.138.023.52.157.503.333-.372.917-1.927 1.394-2.683.702z" />
</svg>
